packages/components/src/components/icon/stock/ic-stock-visa-dark.svg

<svg width="40" height="25" viewBox="0 0 40 25" fill="none" xmlns="http://www.w3.org/2000/svg">
<path d="M24.1475 8.12506C24.8137 8.12191 25.4747 8.24303 26.0968 8.48232L26.0775 8.475L25.7819 10.3094L25.5866 10.2114C25.0731 9.98903 24.5176 9.88117 23.9585 9.89532C23.1082 9.89532 22.7209 10.2272 22.7146 10.6255C22.7083 11.0238 23.1744 11.283 23.9333 11.6782C25.1898 12.2819 25.763 13.0121 25.763 13.9794C25.763 15.737 24.2671 16.875 21.984 16.875C21.1547 16.8773 20.3323 16.724 19.5591 16.4229L19.874 14.5263L20.1543 14.659C20.7903 14.9725 21.493 15.1255 22.2013 15.1048C22.828 15.1048 23.505 14.8455 23.505 14.2766C23.5082 13.9067 23.1996 13.6285 22.3745 13.2239C21.5494 12.8193 20.4692 12.1397 20.4692 10.9227C20.4818 9.27575 21.9966 8.12506 24.1475 8.12506ZM28.8555 8.98493C29.0253 8.51229 29.4988 8.22085 29.9955 8.28318H31.6771L33.4375 16.7517H31.4189C31.4189 16.7517 31.361 16.4741 31.2972 16.1706L31.2714 16.0484C31.2241 15.8241 31.1772 15.604 31.1512 15.4872H28.3673C28.2823 15.7054 27.9107 16.7517 27.9107 16.7517H25.6244L28.8555 8.98493ZM19.5654 8.27369L18.205 16.7485H16.032L17.3925 8.27369H19.5654ZM10.099 8.27685C10.5714 8.29582 10.9556 8.45387 11.0879 8.99125L11.85 12.8762C11.8464 12.8667 11.8429 12.8572 11.8393 12.8477L11.85 12.8825L12.0767 14.0584L14.2055 8.28001H16.5107L13.0718 16.739H10.7824L8.84969 9.38049C8.18034 8.98686 7.41656 8.67023 6.5625 8.45071L6.59084 8.27685H10.099ZM30.1466 10.5655C30.0854 10.7479 30.0006 10.9861 29.9391 11.1567L29.9105 11.2358C29.88 11.3203 29.86 11.3747 29.86 11.3747C29.86 11.3747 29.1735 13.2555 28.994 13.7423H30.7985C30.7609 13.5552 30.6582 13.0563 30.5552 12.5578L30.5227 12.4007C30.4043 11.8276 30.2946 11.2988 30.2946 11.2988L30.1466 10.5655Z" fill="white"/>
</svg>

<svg width="40" height="25" fill="none" xmlns="http://www.w3.org/2000/svg"><path d="M24.148 8.125a5.359 5.359 0 011.949.357l-.02-.007-.295 1.834-.195-.098a3.852 3.852 0 00-1.628-.316c-.85 0-1.238.332-1.244.73-.007.399.46.658 1.218 1.053 1.257.604 1.83 1.334 1.83 2.301 0 1.758-1.496 2.896-3.779 2.896a6.631 6.631 0 01-2.425-.452l.315-1.897.28.133a4.343 4.343 0 002.047.446c.627 0 1.304-.26 1.304-.828.003-.37-.305-.648-1.13-1.053-.826-.405-1.906-1.084-1.906-2.301.013-1.647 1.528-2.798 3.678-2.798zm4.707.86a1.07 1.07 0 011.14-.702h1.682l1.76 8.469H31.42l-.122-.581-.026-.123a63.769 63.769 0 00-.12-.56h-2.784c-.085.217-.456 1.264-.456 1.264h-2.287l3.232-7.767zm-9.29-.711l-1.36 8.475h-2.173l1.36-8.475h2.173zm-9.466.003c.472.019.857.177.989.714l.762 3.885-.01-.028.01.034.227 1.176 2.129-5.778h2.305l-3.44 8.459h-2.289L8.85 9.38a8.836 8.836 0 00-2.287-.93l.028-.173h3.508zm20.048 2.289c-.062.182-.146.42-.208.59l-.029.08-.05.139s-.686 1.88-.866 2.367h1.805c-.038-.187-.14-.686-.244-1.184l-.032-.157-.228-1.102-.148-.733z" fill="#fff"/></svg>
